X:1624
T: Jon-Masns Favoritpolska
R:Polska
S:Efter Per Johan Arnström
O:Bäsksjö, Vilhelmina, Västerbotten
M:3/4
L:1/8
K:Gm
|: vd>d (3c(Bc) d>d | (3(d=ed) (3(cBc) d>A | B>d (3c(dc) B>B | A>A G<G ^F>D |
 D>(d c)>(c d)>d | (3d(=ed) (3c(Bc) d>A | B>d (3c(dc) B>A | ^F2 G2 z2 :|
|: vD>(A B)>(A ^F)>G | (3A(BA) (3G(AG) ^F>D | D>(A B)>(A ^F)>G | A>A (3^c(Ac) d2 |
 uA>(c B)>A ^F>G | (3A(BA) (3G(AG) ^F>D | D>(A B)>(A G)>A | F2 G2 z2 :| 
 
 
 (:musicend:)

(:music:)
